X:34
T: Monostori zöld erdőben születtem
O: Kistelek (Csongrád), Paragi Józsefné - Magyar Erzsébet (42), 1952.02
Q: "Tempo guisto" 1/4=90
M:4/4
L:1/4
K:F
D<D d<d | c d c A | G<A D z | 
D<D d<d | c d c<A | G A D z | 
B>A G<A | F D F<A | A<E A z | 
A>G A<d | c F G>F | E<D D z | 

